!!!SOCIAL_FUNCTION:	rudimentary (?)
!!!PDT:	1922
!!!OTL: Rudimentary Song (a)
!!!REG: Southwest
!!!LANG: Non-Tone
!!!LING_GROUP: Uto-Aztecan
**kern
*staff1
=1-
*clefG2
*k[b-e-a-]
*M2/4
4g/
16.g/LL
32d/JK
8f/J
=2
4g/
16b-/LL
16g/
16b-/
16g/JJ
=3
4.b-\
8g/
=4
[4b-\
16.b-\LL]
32g\JK
8b-\J
=5
2ee-\
=6
4b-\
4g/
=7||
*M3/4
4.g/
8g/
16b-/LK
8.g/J
=8||
*M2/4
2g/
=9
8.g/L
16b-/Jk
8.b-/L
16g/Jk
=10
8b-/L
8g/J
16b-/LK
8.g/J
=11||
*M3/4
8g/L
8f/J
2e-/
=12||
*M2/4
16B-/LK
8.e-/J
16f/LK
8.e-/J
=13
2B-/
=14
4B-/
4B-/
=15
2B-/
=16
8b-/L
8g/J
16b-/LK
8.g/J
=17
8g/L
8f/J
16b-/LK
8.g/J
=18
4.g/
8f/
=19||
*M3/4
4g/
4r
4b-\
=20
[2ee-\
8.ee-\L]
16b-\Jk
=21
2ee-\
4b-\
=22||
*M2/4
2g/
=23||
*M3/4
2g/
4b-\
=24||
*M2/4
8ee-\L
8b-\J
8g/L
8b-/J
=25||
*M3/4
2g/
4f/
=26
2.e-/
=27
4e-/
16f/LK
[8.e-/J
4e-/]
=28
2.B-/
=29
2.B-/
=30
16b-/LK
[8.g/J
4g/]
8.g/L
16f/Jk
=31
16b-/LK
8.g/J
2g/
=32
2g/
4b-\
=33
2ee-\
4b-\
=34
2g/
4f/
=35||
*M2/4
2e-/
=36||
*M3/4
4e-/
16f/LK
[8.e-/J
4e-/]
=37
2.B-/
=38
2.B-/
=39
8b-/L
8g/J
4.g/
8f/
=40
16b-/LK
8.g/J
4.g/
8f/
=41
4g/
8b-/L
8g/J
8b-/L
8g/J
=42||
*M2/4
8b-/L
8g/J
4b-\
=43
[2g/
=44
4g/]
4f/
=45
2e-/
=46||
*M3/4
8B-/L
8e-/J
16f/LK
[8.e-/J
4e-/]
=47
2.B-/
=48
2.B-/
=49||
*M2/4
4.g/
8b-\
=50
4g/
4f/
=51
8.b-/L
16g/Jk
4g/
=52
16b-/LK
8.g/J
8b-/L
8g/J
=53||
*M3/4
16b-/LK
[8.g/J
4g/]
8g/L
16b-/L
16g/JJ
=54
4.g/
8f/
4e-/
=55
16B-/LK
8.e-/J
16f/LK
8.e-/J
4e-/
=56
2.B-/
=57
!!pagebreak:default
2.B-/
==
*-
